X:200
%%topspace -50
T:Alabama Jubilee
M:4/4
L:1/4
K:D
d c =c | "B7"B A F B- | B A2 F | B A F B- | B4 |\
"E"B ^G E B- | B ^G2 E | B ^G E B- | B4 | 
"A"c c/2c/2 c c- | c B A B | c A B c- | c A B c |\
"D"d c d "G"B- | "N.C."B A F A | "D"d c d "G"B- | "N.C."B A F A |
"B7"B A F B- | B A2 F | B A F B- | B4 |\
"Em"E ^D E F | G F G A | B2 B B- | B c d e | 
"D"f4 | "F#7/D"f3 e | "Bm/G"d2 B2 | "D"A2 F A | "G"B d B d | "A7"f2 f2 | "D"d4- | d |]

